X:1
T: Kiss me sweetly
C:
R:Reel
Q: 232
K:C
M:4/4
L:1/8
|:g|a1/2g1/2f1/2e1/2 cg eg cg|a1/2g1/2f1/2e1/2 cg ed dg|a1/2g1/2f1/2e1/2 cg eg de|cA GE C1/2C1/2C Cg|
a1/2g1/2f1/2e1/2 cg eg cg|a1/2g1/2f1/2e1/2 cg ed dg|a1/2g1/2f1/2e1/2 cg eg de|cA GE C1/2C1/2C CG|
EG cG AG cG|EG cE dD DF|EG cG EG ca|ge de c1/2c1/2c cG|
EG cG AG cG|EG cE dD DF|EG AF GB ca|ge de c1/2c1/2c c:|
